src/hbcore/resources/themes/icons/hbdefault/scalable/qtg_mono_user_defined.svg

<?xml version="1.0" encoding="UTF-8" standalone="no"?>
<!DOCTYPE svg PUBLIC "-//W3C//DTD SVG 1.1 Tiny//EN" "http://www.w3.org/Graphics/SVG/1.1/DTD/svg11-tiny.dtd">
<svg xmlns="http://www.w3.org/2000/svg" xmlns:xlink="http://www.w3.org/1999/xlink" baseProfile="tiny" height="30px" style="enable-background:new 0 0 30 30;" version="1.1" viewBox="0 0 30 30" width="30px" x="0px" y="0px">
<g fill-opacity="0.5" stroke-opacity="0.5">
<rect fill="none" height="30" width="30" x="0.002"/>
</g>
<path d="M1,3v24h28v-24h-28zm25,21h-22v-18h22v18z"/>
<path d="M19.78,9.176v11.65h-2.125v-8.062l-2.195,4.187h-0.898l-2.203-4.187v8.062h-2.133v-11.64h1.797l2.992,5.695,2.992-5.695h1.767z"/>
</svg>

<?xml version="1.0" encoding="UTF-8"?>
<!DOCTYPE svg PUBLIC "-//W3C//DTD SVG 1.1 Tiny//EN" "http://www.w3.org/Graphics/SVG/1.1/DTD/svg11-tiny.dtd">
<svg baseProfile="tiny" height="30px" version="1.1" viewBox="-0.002 0 30 30" width="30px" x="0px" xmlns="http://www.w3.org/2000/svg" xmlns:xlink="http://www.w3.org/1999/xlink" y="0px">
<g fill-opacity="0.5" stroke-opacity="0.5">
<rect fill="none" height="30" width="29.998"/>
</g>
<path d="M0.998,3v24h28V3H0.998z M25.998,24h-22V6h22V24z"/>
<path d="M19.775,9.176v11.648H17.65v-8.062l-2.195,4.187h-0.898l-2.203-4.187v8.062h-2.133V9.176h1.797l2.992,5.695l2.992-5.695  H19.775z"/>
</svg>
